X:89
T:Les Bouns Gorous
M:6/8
L:1/8
N:Tres large et fort
N:La Bourre 4th edition 1929, page 87
Z:Steve Mansfield www.lesession.co.uk June 2012
K:A
A B G | A3 B c d | c B2 A B G | 
A3 B c d | !fermata! B3 B c d | !fermata! e3 d c B |
A !fermata! G2 E A B | d3 c A G | !fermata! A6 |]
<end>
<start>
